X:1
T:Henry
T:Henry
T:George Augustus Polgreen Bridgetower 
T:Ballad
C:George Bridgetown
%%score 1 { ( 2 3 6 ) | ( 4 5 ) }
L:1/8
Q:1/4=96
M:2/4
K:F
V:1 treble nm="Voice"
V:2 treble nm="Piano"
V:3 treble 
V:6 treble 
V:4 bass 
V:5 bass 
V:1
"^Allegretto" z | z4 | z4 | z4 |O z4 | z4 | z4 | z4 | z4 | z4 | z2 z ||!mp! c | A3 B | AG z2 | %14
w: |||||||||||You|call me|fic- kle,|
 c2 =B2 | c2 z f | e d2 f/e/ | dc z2 | c3 B | A2 z c | G3 A | c B2 c | e>d de | f d2 d | %24
w: cru- el|youth, you|call _ me _|fi- ckle,|cru- el|youth, And|doubt my|love _ and|con- stan- cy, my|love _ and|
 d/>c/c z c | c=B fe | (dc [dg])[ef] | (ed) (ef) | (fe) z [Gc] | ([ce][df]) [eg][dg] | %30
w: con- stan- cy. But|sure _ that _|tongue _ _ is|void _ of _|truth, _ is|void _ _ is|
 ([dg]3/2f/4e/4 d/G/A/) =B/ |{!fermata!d} !fermata!c3 c | A>B cd | G>A Bc | A>B cd | G>A B z | %36
w: void _ _ _ _ _ of|truth, That|speaks and false- ly|speaks of me, that|speaks and false- ly|speaks of me,|
 BA z2 | BA z A | GA Bc/d/ | (F3 E) | GF z2 | z4 | z4 | z4 |O z4 | z4 | z4 | z2 z || %48
w: Hen- ry,|Hen- ry. and|false- ly speaks of _|Me, _|Hen- ry.||||||||
"^2d. Verse" c | A3 B | AG z2 | c2 =B2 | c2 z f | e d2 f/e/ | dc z2 | c3 B | A2 z c | G<G GA | %58
w: You|tell me|blush- es|flush my|cheek, you|tell _ me _|blush- es|flush my|cheek. When|o- thers to my|
 (c B2) c | e>d de | f d2 d | c2 z c | (c=B) (fe) | (dc [dg])[ef] | (ed) (ef) | (fe) z [Gc] | %66
w: praise _ in-|cline? _ to my|praise _ in-|cline? Oh|yes _ and _|why _ _ I’ll|tru- * ly _|speak, _ I’ll|
 ([ce][df]) [eg][dg] | ([dg]3/2f/4e/4 d/G/A/) =B/ | !fermata!c3 c | A>B cd | G>A Bc | A>B cd | %72
w: tru- * * ly|tru- * * * * * ly|speak. Be-|cause I hate all|praise but thine, be-|cause I hate all|
 G>A B z | BA z2 | BA z A | GA B(c/d/) | (F3 E) | GF z2 | z4 | z4 | z4 |O z4 | z4 | z4 | z2 z || %85
w: praise but thine,|Hen- ry,|Hen- ry. I|hate all praise but _|thine _|Hen- ry||||||||
"^3d. Verse" c | A z z B | G z z c | c2 =B2 | c2 z f | d z z2 | c z z d | c3 B | A2 z c | G>G GA | %95
w: Then|hush, ah|hush, each|i- dle|fear, then|hush,|hush, each|i- dle|fear And|bid each jea- lous|
 (cB) z c | d z z e | (fd) z d | c z z c | (c=B) (fe) | (dc [dg])[ef] | (ed) (ef) | (fe) dc | %103
w: pain _ a-|dieu. each|pain _ a-|dieu, My|heart _ my _|soul _ _ is|thine _ my _|dear _ _ is|
 ([ce][df] [eg])[dg] | ([dg]3/2f/4e/4 d/G/A/) =B/ |{!fermata!d} !fermata!c3 c | A>B cd | G>A Bc | %108
w: thine _ _ is|thine _ _ _ _ _ my|dear. I|live and on- ly|live for you. I|
 A>B cd | G>A B z | BA z2 | BA z A | GA B(c/d/) | (F3 E) | GF z2 | cB z2 | d !fermata!c2 ^c | %117
w: live and on- ly|live for you,|Hen- ry,|Hen- ry, and|on- ly live for _|you, _|Hen- ry,|Hen- ry,|Hen- ry, and|
 dd d[dg] | (f3 e) | gf z2 | z4 | z4 | z4 |O z4 | z4 | z4 | z2 z!fine! |] %127
w: on- ly live for|you, _|Hen- ry.||||||||
V:2
!pp!!8va(!!<(! x | z2 f'g' | e'2 e'f' | d'2 d'e'!8va)! | [ec'] f/b/ e/a/d/g/!<)! |!f! fe z f | %6
 fe z!mf! f | f/e/"_dim."d/c/ =B/c/d/e/ |!p! .f/.g/.a/.b/ .c'/.d'/.e'/.f'/ | f3 e | [Bg]2 [Af] || %11
 z | z!mp! [A,CA] [A,CA] z | z [G,CG] [G,CG] z | c2 =B2 | !arpeggio![EGc] z z2 | z2{/DGB} d z | %17
 z2{/CFA} c z | c2 B2 | [CFA]2 z c | [EG]3 [^FA] | [Ac][GB] z [=FAc] | z [FBd] z [G^ce] | f d2 d | %24
 dc z [EGc] | z2 [DF=B]2 | z2 [EGc]2 | z2 [F=Bd]2 | z2 [Gce]2 | e[df] [cg][=Bg] | [=Bg]4 | %31
 !fermata!c3 z | A>B cd | [EG]>[FA] [GB][Ec] | A>B cd | [EG]>[FA] [GB][Ec] | z2 [CFA][CFA] | %37
 z2 [DFA][DFA] | [DG][^FA] [GB]c/d/ | z F2 E | z2 FF |!8va(! f'e' c'd' | f'e' c'd' | %43
 f'e' d'c'!8va)! |"^loco" fe dc | BA BG | F3 E | G2 F || z | z A A z | z G G z | c2 =B2 | %52
 !arpeggio![EGc] z z2 | z2{/DGB} d z | z2{/CFA} c z | c2 B2 | [FA]2 z c | [EG]3 [^FA] | %58
 [Ac][GB] z [=FAc] | z [FBd] z [G^ce] | f d2 d | dc z [EGc] | z2 [DF=B]2 | z2 [EGc]2 | z2 [F=Bd]2 | %65
 z2 [Gce]2 | e[df] [cg][=Bg] | [=Bg]4 | !fermata!c3 z | A>B cd | [EG]>[FA] [GB][Ec] | A>B cd | %72
 [EG]>[FA] [GB][Ec] | z2 [CFA][CFA] | z2 [DFA][DFA] | [DG][^FA] Bc/d/ | z F2 E | z2 FF | %78
!8va(! f'e' c'd' | f'e' c'd' | f'e' d'c'!8va)! |"^loco" fe dc | BA BG | F3 E | G2 F || z | %86
 z A A z | z G G z | c2 =B2 | !arpeggio![EGc] z z2 | z2{/DGB} d z | z2{/CFA} c z | c2 B2 | %93
 [CFA]2 z c | [C_EG]2 G[^FA] | [_EAc][DGB] z2 | z [^Gd] [A^c] z | z f d z | z [EGc] [EGc] z | %99
 z2 [DF=B]2 | z2 [EGc]2 | z2 [F=Bd]2 | z2 [Gce]2 | e[df] [cg][=Bg] | [Bg]4 | !fermata!c3 z | %106
 A>B cd | [DG]F E2 | A>B cd | [DG]F E2 | z2 ([Af][ca]) | z2 ([Af][da]) | G[^FA] [GB]2 | =F3 E | %114
 z2 ([Af][ca]) | z2 ([Bg][eb]) | z !fermata![cfc']2 [^cf^c'] | [bd'][^fa] [gb] z | =f3 e | %119
 z2 [Acf][Acf] |!8va(! f'e' c'd' | f'e' c'd' | f'e' d'c'!8va)! |"^loco" fe dc | BA z!ff! [Bdgb] | %125
 z [Acfa] z [GBeg] | z [Acf] [Acfa] |] %127
V:3
!8va(! c'/c/ | a/c/g/c/ a/c/b/c/ | g/c/f/c/ g/c/a/c/ | f/c/e/c/ f/c/g/c/!8va)! | e/c/ d cB | %5
 [GB]2 z [FB] | [GB]2 z [FB] | [GB] z z2 | x4 | [Ac][Bd] [GB]2 | x3 || x | x4 | x4 | [DF]4 | x4 | %16
 x4 | x4 | [CEG]4 | x4 | z2 D2 | D2 z2 | x4 | A2 =B2 | [EG]2 z2 | x4 | x4 | x4 | x4 | x4 | x4 | %31
 x4 | F4 | x4 | F4 | x4 | x4 | x4 | x4 | x4 | x2[I:staff +1] [A,C][A,C] | %41
!8va(![I:staff -1] b/g/b/g/ b/g/b/g/ | b/g/b/g/ b/g/b/g/ | b/g/b/g/ b/f/b/e/!8va)! | %44
 B/G/B/G/ B/F/B/E/ | F/D/F/D/ D/B,/D/B,/ |[I:staff +1] [A,C][B,D] [G,B,]2 | B,2 A, || x | %49
 x [A,C] [A,C] x | x [G,C] [G,C] x |[I:staff -1] [DF]4 | x4 | x4 | x4 | [CEG]4 | C2 D2 | z2 D2 | %58
 D2 x2 | x4 | A2 =B2 | [EG]2 z2 | x4 | x4 | x4 | x4 | x4 | x4 | x4 | F4 | x4 | F4 | x4 | x4 | x4 | %75
 x2 G2 | x4 | x2[I:staff +1] [A,C][A,C] |!8va(![I:staff -1] b/g/b/g/ b/g/b/g/ | b/g/b/g/ b/g/b/g/ | %80
 b/g/b/g/ b/f/b/e/!8va)! | B/G/B/G/ B/F/B/E/ | F/D/F/D/ D/B,/D/B,/ | %83
[I:staff +1] [A,C][B,D] [G,B,]2 | B,2 A, || x | x [A,C] [A,C] x | x [G,C] [G,C] x | %88
[I:staff -1] [DF]4 | x4 | x4 | x4 | [CEG]4 | x4 | x2 D2 | x4 | x E2 z | x [FA]2 x | x4 | x4 | x4 | %101
 x4 | x4 | x4 | x4 | x4 | F4 |[I:staff +1] B,[A,C] [G,B,]2 |[I:staff -1] F4 | %109
[I:staff +1] B,[A,C] [G,B,]2 | x4 | x4 |[I:staff -1] D4 | x4 | x4 | x4 | x4 | x4 | [Ac][Bd] [GB]2 | %119
 x4 |!8va(! b/g/b/g/ b/g/b/g/ | b/g/b/g/ b/g/b/g/ | b/g/b/g/ b/f/b/e/!8va)! | B/G/B/G/ B/F/B/E/ | %124
 F/D/F/D/ x2 | x4 | x3 |] %127
V:4
 z |!ped!{/F,} F2 z2!ped-up! | z4 | z4 | z2 G,2 | [C,,C,][G,,G,] [D,,D,][G,,G,] | %6
 [C,,C,][G,,G,] [D,,D,][G,,G,] | C,E, B,E, | A, z z2 | z2 C2- | CE F || z | z [F,,F,] [F,,F,] z | %13
 z [E,,E,] [E,,E,] z | G,,4 | z2 A,2- | A,2 G,2- | G,2 F,2 | [C,,C,]4 | F,,A,, C,F, | %20
 z ([C,,C,] [B,,,B,,][A,,,A,,] | G,,) z A,, z | B,, z A,, z | [D,,D,]2 [G,,G,]2 | %24
 [C,,C,]2 [E,,E,]2 | [G,,G,]2 z2 | [G,,G,]2 z2 | [G,,G,]2 z2 | [G,,G,]2 z2 | GF ED | [D,A,D]4 | %31
 !fermata![C,E,C]3 z |{/F,,} F,>G, A,B, | [C,,C,]4 |{/F,,} F,>G, A,B, | [C,,C,]4 | %36
 z2 [F,,F,][F,,F,] | z2 [D,,D,][D,,D,] | ([B,,,B,,][D,,D,] [G,,G,])B,, | z [A,C] [G,B,]2 | %40
 z2 [F,,F,][F,,F,] |[K:treble]!pp!!ped! c2 d2!ped-up! | c2 d2 | c2 z2 |[K:bass] [C,,C,]4 | %45
 [D,,D,]2 [G,,,G,,][B,,,B,,] |"_dim." [C,,C,-]4 | C,E, F, || z | z [F,,F,] [F,,F,] z | %50
 z [E,,E,] [E,,E,] z | [G,,,G,,]4 | z2 A,2- | A,2 G,2- | G,2 F,2 | [C,,C,]4 | F,,A,, C,F, | %57
 z"_correct crochet to \nquaver, like bar x\n" [C,,C,] [B,,,B,,]A,, | G,, z A,, z | B,, z A,, z | %60
 ([D,,D,]2 [G,,G,]2) | [C,,C,]2 [E,,E,]2 | [G,,G,]2 z2 | [G,,G,]2 z2 | [G,,G,]2 z2 | [G,,G,]2 z2 | %66
 GF ED | [D,A,D]4 | !fermata![C,E,C]3 z |{/F,,} F,>G, A,B, | [C,,C,]4 |{/F,,} F,>G, A,B, | %72
 [C,,C,]4 | z2 [F,,F,][F,,F,] | z2 [D,,D,][D,,D,] | ([B,,,B,,][D,,D,] [G,,G,])B,, | %76
 z [A,C] [G,B,]2 | z2 [F,,F,][F,,F,] |[K:treble]!pp!!ped! c2 d2!ped-up! | c2 d2 | c2 z2 | %81
[K:bass]!f! [C,,C,]4 | [D,,D,]2 ([G,,,G,,][B,,,B,,]) |"_dim." [C,,C,]4 | C,E, F, || z | %86
 z [F,,F,] [F,,F,] z | z [E,,E,] [E,,E,] z |!8vb(! G,,,4!8vb)! | z2 A,2- | A,2 G,2- | G,2 F,2 | %92
 [C,,C,]4 | F,,A,, C,F, | z ([G,,,G,,] [B,,,C,][D,,D,]) | ([^F,,^F,][G,,G,]) !wedge![A,,A,] z | %96
 z ([B,,B,] !wedge![A,,A,]) z | z ([D,,D,] !wedge![G,,G,]) z | z .[C,,C,] .[C,,C,].[E,,E,] | %99
 [G,,G,]2 z2 | [G,,G,]2 z2 | [G,,G,]2 z2 | [G,,G,]2 z2 | GF ED | [C,F,D]4 | !fermata![C,E,C]3 z | %106
{/F,,} F,>G, A,B, | [C,,C,]4 |{/F,,} F,>G, A,B, | [C,,C,]4 | z2 FF | z2 DD | B,[^F,A,] [G,B,]B,, | %113
 [A,C][^G,=B,] [=G,_B,]2 | z2 [F,CF][F,CF] | z2 [F,CF][F,CF] | z !fermata![A,CF]2 z | %117
 [B,D][^F,A,] [G,B,]B,, | C,2 C,,2 | z2!8vb(! F,,,F,,,!8vb)! |[K:treble]!pp!!ped! c2 d2!ped-up! | %121
 c2 d2 | c2 z2 |[K:bass]!f! [C,,C,]4 | [D,,D,]2 [B,,,B,,] z | [C,,C,] z [C,,C,] z | [F,,F,] z z |] %127
V:5
 x | x4 | x4 | x4 | x4 | x4 | x4 | C,4 | [D,F,] x3 |{/C,,} C,4 | F,2 z || x | x4 | x4 | x4 | %15
 C,E, A,E, | B,,D, G,D, | A,,C, F,C, | x4 | x4 | x4 | x4 | x4 | x4 | x4 | x4 | x4 | x4 | x4 | G,4 | %30
 x4 | x4 | x4 | x4 | x4 | x4 | x4 | x4 | x4 | C,2 C,,2 | x4 |[K:treble] C4 | C4 | C2 x2 | %44
[K:bass] x4 | x4 | x4 | F,,3 || x | x4 | x4 | x4 | C,E, A,E, | B,,D, G,D, | A,,C, F,C, | x4 | x4 | %57
 x4 | x4 | x4 | x4 | x4 | x4 | x4 | x4 | x4 | G,4 | x4 | x4 | x4 | x4 | x4 | x4 | x4 | x4 | x4 | %76
 C,2 C,,2 | x4 |[K:treble] C4 | C4 | C2 x2 |[K:bass] x4 | x4 | x4 | F,,3 || x | x4 | x4 | %88
!8vb(! x4!8vb)! | C,E, A,E, | B,,D, G,D, | A,,C, F,C, | x4 | x4 | x4 | x4 | x4 | x4 | x4 | x4 | %100
 x4 | x4 | x4 | G,4 | x4 | x4 | x4 | x4 | x4 | x4 | x4 | x4 | x4 | C,2 C,,2 | x4 | x4 | x4 | x4 | %118
 x4 | x2!8vb(! x2!8vb)! |[K:treble] C4 | C4 | C2 x2 |[K:bass] x4 | x4 | x4 | x3 |] %127
V:6
!8va(! x | x4 | x4 | x4!8va)! | x4 | x4 | x4 | x4 | x4 | x4 | x3 || x | x4 | x4 | x4 | x4 | x4 | %17
 x4 | x4 | x4 | x4 | x4 | x4 | F4 | x4 | x4 | x4 | x4 | x4 | x4 | x4 | x4 | x4 | x4 | x4 | x4 | %36
 x4 | x4 | x4 | x4 | x4 |!8va(! x4 | x4 | x4!8va)! | x4 | x4 | x4 | x3 || x | x4 | x4 | x4 | x4 | %53
 x4 | x4 | x4 | x4 | x4 | x4 | x4 | F4 | x4 | x4 | x4 | x4 | x4 | x4 | x4 | x4 | x4 | x4 | x4 | %72
 x4 | x4 | x4 | x4 | x4 | x4 |!8va(! x4 | x4 | x4!8va)! | x4 | x4 | x4 | x3 || x | x4 | x4 | x4 | %89
 x4 | x4 | x4 | x4 | x4 | x4 | x4 | x4 | x4 | x4 | x4 | x4 | x4 | x4 | x4 | x4 | x4 | x4 | x4 | %108
 x4 | x4 | x4 | x4 | x4 | x4 | x4 | x4 | x4 | x4 | x4 | x4 |!8va(! x4 | x4 | x4!8va)! | x4 | x4 | %125
 x4 | x3 |] %127

